src/actions/symbolic/find-location-symbolic.svg

<svg width="16" height="16" version="1.1" xmlns="http://www.w3.org/2000/svg">
 <path d="m8 1h-1v1.025c-3.1927 0.24697-5.7299 2.7825-5.979 5.975h-1.021v1h1.025c0.24697 3.1927 2.7825 5.7299 5.975 5.979v1.021h1v-1.025c3.1927-0.24697 5.7299-2.7825 5.979-5.975h1.021v-1h-1.025c-0.24697-3.1927-2.7825-5.7299-5.975-5.979zm-0.5 2c3.0376 0 5.5 2.4624 5.5 5.5 0 3.0376-2.4624 5.5-5.5 5.5-3.0376 0-5.5-2.4624-5.5-5.5 0-3.0376 2.4624-5.5 5.5-5.5zm0 3c-1.3807 0-2.5 1.1193-2.5 2.5s1.1193 2.5 2.5 2.5 2.5-1.1193 2.5-2.5-1.1193-2.5-2.5-2.5z" fill="#363636"/>
</svg>

<svg xmlns="http://www.w3.org/2000/svg" width="16" height="16">
    <path fill="#050505" fill-opacity=".7" d="M8 1H7v1.025A6.5 6.5 0 0 0 1.021 8H0v1h1.025A6.5 6.5 0 0 0 7 14.979V16h1v-1.025A6.5 6.5 0 0 0 13.979 9H15V8h-1.025A6.5 6.5 0 0 0 8 2.021zm-.5 2a5.5 5.5 0 1 1 0 11 5.5 5.5 0 0 1 0-11zm0 3a2.5 2.5 0 1 0 0 5 2.5 2.5 0 0 0 0-5z"/>
</svg>
